icon/ir/align-bottom-box.svg

<svg stroke-width="1.5" viewBox="0 0 24 24" fill="none" xmlns="http://www.w3.org/2000/svg" height="1em" width="1em">
  <path d="M4 8.00001L4.01 8.01112" stroke="currentColor" stroke-linecap="round" stroke-linejoin="round"/>
  <path d="M4 4.00001L4.01 4.01112" stroke="currentColor" stroke-linecap="round" stroke-linejoin="round"/>
  <path d="M8 4.00001L8.01 4.01112" stroke="currentColor" stroke-linecap="round" stroke-linejoin="round"/>
  <path d="M12 4.00001L12.01 4.01112" stroke="currentColor" stroke-linecap="round" stroke-linejoin="round"/>
  <path d="M16 4.00001L16.01 4.01112" stroke="currentColor" stroke-linecap="round" stroke-linejoin="round"/>
  <path d="M20 4.00001L20.01 4.01112" stroke="currentColor" stroke-linecap="round" stroke-linejoin="round"/>
  <path d="M20 8.00001L20.01 8.01112" stroke="currentColor" stroke-linecap="round" stroke-linejoin="round"/>
  <path d="M4 12V20H20V12H4Z" stroke="currentColor" stroke-linecap="round" stroke-linejoin="round"/>
</svg>

<svg width="24" height="24" stroke-width="1.5" fill="none" xmlns="http://www.w3.org/2000/svg"><path d="m4 8 .01.011M4 4l.01.011M8 4l.01.011M12 4l.01.011M16 4l.01.011M20 4l.01.011M20 8l.01.011M4 12v8h16v-8H4Z" stroke="currentColor" stroke-linecap="round" stroke-linejoin="round"/></svg>
